X: 20702
Q: "Lively, but not too fast."
M: C|
L: 1/8
K: G
|:\
|: d |\
d>eg>B A>GA>B | d>eg>B A<AA2 |\
d>eg>B A>GA>B | G>ED>E G<GG2 :|


